X:1
T:Auprès de ma mie
T:Auprès de ma mie (Beside my Darling)
T:Cécile Chaminade
T:Octave Pradels
T:OpenScore (CC0)
T:OpenScore (CC0)
T:OpenScore (CC0)
T:OpenScore (CC0)
T:OpenScore (CC0)
T:OpenScore (CC0)
T:OpenScore (CC0)
T:OpenScore (CC0)
C:Cécile Chaminade
Z:Octave Pradels
Z:OpenScore (CC0)
%%score 1 { ( 2 3 ) | ( 4 5 ) }
L:1/8
Q:1/4=96
M:2/4
K:A
V:1 treble nm="Voice"
V:2 treble nm="Piano"
V:3 treble 
V:4 bass 
V:5 bass 
V:1
"^Allegretto. (.)" z4 | z4 | z4 | z4 | z4 |"^leggiero semplice." A e e (d/c/) | B (A/B/) c d | %7
w: |||||Si j'é- tais l'oi- *|seau lé- * ger Des|
w: |||||If I were a *|star- ling * gay A-|
 e f2 d | e2 e z |!p! A e e (d/c/) | B (A/B/)!<(! c d!<)! | e f2 e |!p! (d2 c2 | B) z z2 | z4 | %15
w: fo- rêts sau-|va- ges,|Ah! je vou- drais *|voy- a- * ger Sur|tous les ri-|va- *|ges.||
w: \- mong for- est|le- gions,|Ah! I'd swift- ly *|fly a- * way To|Earth's fair- rest|re- *|gions.||
 z4 | z4 | z4 | z4 | z4 |!mf! A B c c | f f c2 | A B c ^d | e2 e z |!p! =G A B B | %25
w: |||||J'i- rais sous le|ciel heu- reux,|Où Gol- conde est|rei- ne|Trem- per mon aile|
w: |||||Soon the hap- py|skies I'd view,|Where Gol- con- da|sleep- eth|Dip my wing in|
"^dolce."[Q:1/4=86]"^poco rit." e[Q:1/4=80] e E2 |!p![Q:1/4=96]"^a tempo" (E f e (d/c/)) | %27
w: aux flots bleus|De la mer se- *|
w: waves of blue|That the o- cean *|
[Q:1/4=88]"^pochettino rit." B2 B z |!mf![Q:1/4=96]"^a tempo" A e e (d/c/) | B (A/B/) c d | %30
w: rei- ne.|I- vre de ciel *|a- zu- * ré Et|
w: steep- eth.|In an a- zure *|dream of * joy To|
 e f2 d | e2 e z | A e e (d/c/) | B (A/B/) c d | e f2 e |!p! (d2 c2 | B) z z2 | z4 | z4 | z4 | z4 | %41
w: de po- é-|si- e,|Par les airs j'i- *|rais au * gré De|ma fan- tai-|\- si- *|e.|||||
w: rap- ture con-|fid- ed,|On the buoy- ant *|winds I'd * fly Wher-|e'er fan- cy|guid- *|ed.|||||
 z4 | z4 |!mf! A B c c | f f c2 | A B c ^d | e2 e z |!p! =G A B B | %48
w: ||Mais non, je n'ai|pas sou- ci|De loin- tai- ne|grè- ve,|Je veux vi- vre|
w: ||But, in- deed, I|do not strive|For a new con-|di- tion,|Here a- lone I|
"^dolce"[Q:1/4=88]"^poco rit." e[Q:1/4=82] e E2 |!p![Q:1/4=96]"^a tempo" (E f) e (d/c/) | %50
w: près d'i- ci|Mon fol et doux *|
w: care to live|My fond, fool- ish *|
[Q:1/4=86]"^pochettino rit." B2 B z |[Q:1/4=96]"^a tempo" A e e (d/c/) | B (A/B/) c d | e f2 d | %54
w: rê- ve,|Car je n'ai qu'un *|seul dé- * sir Et|ma seule en-|
w: vis- ion.|For but one de- *|sire I * feel, I'm|no wan- ton|
 e2 e z |!f! A e e (d/c/) |[Q:1/4=86]"^poco rit." B (A/B/) (c!breath!d) | e (!>!f2 e) | d2 c2 | %59
w: \- vi- e|C'est d'é- cou- ter *|à loi- * sir *|Le chant _|de ma|
w: star- ling,|'Tis to hear, when- *|e'er I * will *|The song _|of my|
"^dim."!>(! (B4!>)! |[Q:1/4=96] A2) z2 | z4 |[Q:1/4=90] z4[Q:1/4=86][Q:1/4=82][Q:1/4=70] | z4 |] %64
w: mi-|\- e.||||
w: dar-|\- ling.||||
V:2
 (eb) (ba/g/) | (fe) z2 | (eb) (ba/=g/) |"_cresc." x !>!e- (ed/c/) | (e=d cB) | (Ae) (ed/)c/ | %6
 (BA/B/ cd) | (e f2 d) | e2 e2 | ((Ae)) (ed/c/) | ((BA/B/ cd)) |!<(! (e!<)! f2 e) | (d2 c2) | %13
 (eb) ba/g/ | (fe) z2 | (eb) (ba/=g/) |"_cresc." x !>!e- (ed/c/) |"_dim." (ed cB) | %18
!p! (A/E/[ce]/E/ [ce][Bd]/[Ac]/) | z/ (D/[Bd]/D/ [Bd][Ac]/[GB]/) |!p! (A/F/B/G/ c/A/B/G/) | %21
 (A/F/B/G/ c/A/B/G/) | (A/F/B/G/ cB/A/) | (G/E/A/F/ B/G/A/F/) | (=G/!p!E/A/F/ B/G/A/F/) | %25
 (=G/E/A/E/ _B/E/A/E/) | ([=B,^G]/E/B,/E/) ([A,A]/E/[B,A]/F/) | (A2 G2) | (Ae) (ed/c/) | %29
 (B/E/A/B/ cd) | (e f2 d) | e2 e2 | (Ae) (ed/c/) | (BA/B/ cd) |!<(! (e!<)! f2 e) | (d2 c2) | %36
 (eb) ba/g/ | (fe) z2 | (eb) (ba/=g/) |"_cresc." x !>!e- (ed/c/) |"_dim." (ed cB) | %41
!p! (A/E/[ce]/E/ [ce][Bd]/[Ac]/) | z/ (D/[Bd]/D/ [Bd][Ac]/[GB]/) |!p! (A/F/B/G/ c/A/B/G/) | %44
 (A/F/B/G/ c/A/B/G/) | (A/F/B/G/ cB/A/) | (G/E/A/F/ B/G/A/F/) |!p! (=G/E/A/F/ B/G/A/F/) | %48
 [=G,=G]/E/[A,A]/E/ [_B,_B]/E/A/E/ | ([=B,^G]/E/B,/E/) ([A,A]/E/[B,A]/F/) | (A2 G2) | %51
 (Ae) (ed/c/) | (BA/B/ cd) | (e !>!f2 d) | e2 e2 | ((Ae)) (ed/c/) | (BA/B/ cd) | (e !>!f2 e) | %58
 (d2 c2) | (B2 G2) | (Ae) (ed/c/) | z/ (E,/[CE]/E,/) ([CE]/E,/[B,D]/[A,C]/) | B,4 | !-)![E,A,C]4 |] %64
V:3
 e/B/b/B/ b/B/a/g/ | f/B/e/B/ x2 | e/B/b/B/ b/B/a/=g/ | f x =G2 | [FB]2 [E^G]2 | %5
 A/E/e/[EA]/ e/[EA]/d/c/ | B/E/A/B/ c/A/d/[AB]/ | e/[Ac]/f/[AB]/ z/ [AB]/d/[AB]/ | %8
 e/[Ac][Ac]/ e/[Ac][Ac]/ | A/[C=G]/e/[GA]/ e/[GA]/d/c/ | B/=G/A/B/ c/[GA]/d/[GB]/ | %11
 e/[=GAc]/f/[GAc]/ z/ [GAc]/e/[GAc]/ | d/[FA][FA]/ c/[EA][EA]/ | e/B/b/B/ b/B/a/g/ | f/B/e/B/ x2 | %15
 e/B/b/B/ b/B/a/=g/ | f x =G2 | [FB]2 [E^G]2 | x4 | x4 | x4 | x4 | x2 A/^D/B/A/ | x4 | x4 | %25
 [=G,=G][A,A] [_B,_B][A,A] | x4 | B,/E/B,/E/ B,/E/D/E/ | C/E/e/[EA]/ e/[EA]/d/c/ | %29
 B/E/A/B/ c/A/d/[AB]/ | e/[Ac]/f/[AB]/ z/ [AB]/d/[AB]/ | e/[Ac][Ac]/ e/[Ac][Ac]/ | %32
 A/[C=G]/e/[GA]/ e/[GA]/d/c/ | B/=G/A/B/ c/[GA]/d/[GB]/ | e/[=GAc]/f/[GAc]/ z/ [GAc]/e/[GAc]/ | %35
 d/[FA][FA]/ c/[EA][EA]/ | e/B/b/B/ b/B/a/g/ | f/B/e/B/ x2 | e/B/b/B/ b/B/a/=g/ | f x =G2 | %40
 [FB]2 [E^G]2 | x4 | x4 | x4 | x4 | x2 A/^D/B/A/ | x4 | x4 | =G,A, _B,[A,A] | x4 | %50
 B,/E/B,/E/ B,/E/D/E/ | C/E/e/[EA]/ e/[EA]/d/c/ | B/E/A/B/ c/A/d/[AB]/ | %53
 e/[Ac]/f/[AB]/ z/ [AB]/d/[AB]/ | e/[Ac][Ac]/ e/[Ac][Ac]/ | A/[C=G]/e/[GA]/ e/[GA]/d/c/ | %56
 B/=G/A/B/ c/[GA]/d/[GB]/ | e/[=GAc]/f/[GAc]/ z/ [GAc]/e/[GAc]/ | d/[FA][FA]/ c/[EA][EA]/ | %59
 B/!>(![B,EA][B,EA]/ G/[DE][DE]/!>)! | A/[CE]/c/E/ c/E/B/A/ | x4 | x4 | x4 |] %64
V:4
"^dolce.""_col  Ped." (E,,[B,,G,]) z"_marcato." B,, | (E,,B,) (B,A,/G,/) | (F,E,) z2 | %3
 E,,E,- E,E,- | E,E,"^dim." (DE,) |!p! (A,,E) (ED/)C/ | (B,A,/B,/ CD) | (E F2 D) | (E2 E,2) | %9
"^dolce" ([A,,,A,,]E) (ED/C/) | (B,A,/B,/ CD) | (E !>!F2 E) |!p! D2 A,2 | %13
!mf! (E,,[B,,G,]) z"_marcato." B,, | (E,,B,) (B,A,/G,/) | (F,E,) z2 | (E,,E,-) E,E,- | %17
 E,E, (!>!DE,) | (A,,[E,C]) z2 | !>!^E4 | z !>!C- C2 | z !>!C- C2 | F,2 [B,,,B,,]2 | z B,- B,2 | %24
 z B,- B,2 |"^poco rit." [=C,,=C,]4 |!p! [D,,D,]2 [^C,,^C,][D,,D,] |"^pochettino rit." [E,,E,]4 | %28
!mf! ([A,,,A,,]"^a tempo"E) (ED/C/) | (B,A,/B,/ CD) | (E !>!F2 D) | (E2 E,2) | %32
"^dolce" ([A,,,A,,]E ED/C/) | (B,A,/B,/ CD) | (E !>!F2 E) | D2 A,2 |!mf! (E,,[B,,G,]) z B,, | %37
 (E,,B,) (B,A,/G,/) | (F,E,) z2 | (E,,E,-) E,E,- | E,E, (DE,) | (A,,[E,C]) z2 | !>!^E4 | z C- C2 | %44
 z C- C2 | F,2 [B,,,B,,]2 | z B,- B,2 | z B,- B,2 |"^poco rit." [=C,,=C,]4 | %49
!p! [D,,D,]2 ([^C,,^C,][D,,D,]) |"^pochettino rit." [E,,E,]4 |"^a tempo" ([A,,,A,,]E) (ED/C/) | %52
 (B,A,/B,/ CD) | (E !>!F2 D) | (E2 E,2) |!mf! ([A,,,A,,]E) (ED/C/) |"^poco rit." (B,A,/B,/ CD) | %57
 (E !>!F2 E) | D2 A,2 | (E,2 E,,2) |!p! [A,,,A,,]3 E,, | [A,,,A,,]4 | %62
"^rit." (F,A,) (A,G,/!-(!F,/) | [A,,,A,,]4 |] %64
V:5
 E,,2 x2 | x4 | x4 | E,,2 !>!^A,2 | !>!B,2 D2 | x4 | x4 | x4 | x4 | x4 | x4 | x4 | %12
 D[D,A,]/ z/ A,[A,,E,]/ z/ | E,,2 x2 | x4 | x4 | !>!E,,2 !>!^A,2 | !>!B,2 D2 | x4 | x4 | F,,3 C, | %21
 F,3 C, | x4 | E,,3 B,, | E,4 | x4 | x4 | x4 | x4 | x4 | x4 | x4 | x4 | x4 | x4 | %35
 D[D,A,]/ z/ A,[A,,E,]/ z/ | E,,2 x2 | x4 | x4 | E,,2 !>!^A,2 | !>!B,2 D2 | x4 | x4 | F,,3 C, | %44
 F,3 C, | x4 | E,,3 B,, | !>!E,4 | x4 | x4 | x4 | x4 | x4 | x4 | x4 | x4 | x4 | x4 | %58
 D[D,A,]/ z/ A,[A,,E,]/ z/ | x4 | x4 | x4 | [D,,A,,]4 | x4 |] %64

